X:1
T:Sonata in C (K159, L104)
T:Sonata in C (K159, L104)
T:Domenico SCARLATTI (1685-1757) Restitution : P. Gouin
C:Domenico SCARLATTI
C:(1685-1757)
C:Restitution : P. Gouin
%%score { ( 1 3 ) | 2 }
L:1/8
Q:1/4=155
M:6/8
K:C
V:1 treble nm="Piano" snm="Pno."
V:3 treble 
V:2 treble 
V:1
"^Allegro Vivace" gf |: eed ccd | (5:4:5e/f/e/f/e/d dgf | eed ccd | (5:4:5e/f/e/f/e/d dgf | %5
 (5:4:5e/f/e/f/e/d z gf | (5:4:5e/f/e/f/e/d z gf |{/e} edd{/c} cBB |{/d} cBB z d'g | %9
{/a} (5:4:5g/a/g/a/g/^f z ge | (5:4:5e/^f/e/f/e/d z d'g |{/a} g^ff{/g} fee |{/^f} edd{/e} dcc | %13
 [GB][Ac][Bd] [Ac][GB][^FA] | B2 g z Ac | B2 g z Ac | [GB][Ac][Bd] [Ac][GB][^FA] | B2 g z Ac | %18
 B2 b z Ac | B2 d' z Ac | [GB][Ac][Bd] [Ac][GB][^FA] | [Bd][Ac][GB] [Ac][GB][^FA] | %22
 [Bd][Ac][GB] [Ac][GB][^FA] | [Bd][Ac][GB] (3A/B/A/G^F | GDB, z3 | z4 z :: g_e |{/f} _edd{/e} dcc | %28
{/d} cBB z g_e |{/f} _edd{/e} dcc |{/d} cBB z c'_a |{/_b} _agg{/a} gff |{/g} fee z c'_a | %33
{/_b} _agg{/a} gff |{/g} fee z gg | g_b_a z ff | ^f_ag z _ee | egf z dd | _ege dg-d | g3 f3 | %40
 g3 f3 | g3 f3 | d/g/(3f/_e/d/(3c/B/A/ (3G/F/_E/(3D/C/B,/(3A,/G,/^F,/ | G,3 z gf | eed ccd | %45
 (5:4:5e/f/e/f/e/d dgf | eed ccd | (5:4:5e/f/e/f/e/d dc'a | (5:4:5a/b/a/b/a/g z c'f | %49
 (5:4:5f/g/f/g/f/e z c'a |{/b} agg{a} gff |{/g} fee{/f} edd | x3 efd | e2 c'- c'df | e2 c'- c' df | %55
 [ce][df][eg] [df][ce][Bd] | (e2 c'-) c'df | (eze') z df | (ezg') z df | %59
 [ce][df][eg] [df][ce][Bd] | [eg][df][ce] [df][ce][Bd] | [eg][df][ce] [df][ce][Bd] | %62
 [eg][df][ce] (3d/e/d/cB | (5:4:5c/d/c/d/c/d- d z2 :| %64
V:2
 ed |: ccG EEG | c2 G Ged | ccG EEG | c2 G G2 c | B2 B A2 A | G2 G c2 c | B2 B A2 A | G2 G E2 c | %9
 D2 B C2 A | B,2 G E2 c | D2 B C2 A | B,2 G A,2 ^F |[K:bass] G,2 B,, C,2 D, | G,D,G,, D,,2 z | %15
 G,D,G,, D,,2 z | G,2 B,, C,2 D, | G,D,G,, D,,2 z | G,D,G,, D,,2 z | G,D,G,, D,,2 z | %20
 G,2 B,, C,2 D, | G,2 B,, C,2 D, | B,,2 E, C,2 D, | B,,2 E, C,2 D, | B,,2 z G,D,B,, | z4 z :: %26
[K:treble] z [Gc] | [GB]2 [GB] [G_A]2 [FA] | G2 G [Gc]2 [Gc] | [GB]2 [GB] [G_A]2 [FA] | %30
 G2 G [FAc]2 [FAc] | [EG_Bc]2 [EGBc] [FB_d]2 [FBd] | [CGc]2 [CGc] [F_Ac]2 [FAc] | %33
 [EG_Bc]2 [EGBc] [FB_d]2 [FBd] | [CGc]2 [CGc] [EGc]2 [EGc] | [F_Ac]2 [FAc] [DF]2 [DF] | %36
 [_EG]2 [EG] [CE]2 [CE] | [DF]2 [DF] [B,D]2 [B,D] | [C_EG]2 [CEG] [_B,DG]2 [B,DG] | %39
 [_A,CG]2 [A,CG] [A,CF]2 [A,CF] | [G,CDG]2 [G,CDG] [_A,CF]2 [A,CF] | %41
 [G,CDG]2 [G,CDG] [_A,CF]2 [A,CF] | [G,B,DG]2 z z3 |[K:bass] G,,3 z[K:treble] ed | ccG EEG | %45
 c2 G Ged | ccG EEG | c2 G G2 [FAc] | [EGc]2 [EGc] [DFB]2 [DFB] | [CGc]2 [CGc] [FAc]2 [FAc] | %50
 [EGc]2 [EGc] [DFB]2 [DFB] | [CGc]2 [CGc] [GB]2 [GB] | AGF G2[K:bass] G, | CG,C, G,,2 z | %54
 CG,C, G,,2 z | C2 E, F,2 G, | CG,C, G,,2 z | CG,C, G,,2 z | CG,C, G,,2 z | C2 E, F,2 G, | %60
 C2 E, F,2 G, | C2 E, F,2 G, | E,2 [A,,A,] [F,,F,]2 [G,,G,] | [C,,C,]4 z2 :| %64
V:3
 x2 |: x6 | x6 | x6 | x6 | x6 | x6 | x6 | x6 | x6 | x6 | x6 | x6 | x6 | G3- G ^F2 | G3- G ^F2 | %16
 x6 | G3- G ^F2 | G x3 ^F2 | G x3 ^F2 | x6 | x6 | x6 | x6 | x6 | x5 :: x2 | x6 | x6 | x6 | x6 | %31
 x6 | x6 | x6 | x6 | x6 | x6 | x6 | x4 g2 | cBc cBc | d_ed cBc | d_ed (3c/d/c/Bc | x6 | x6 | x6 | %45
 x6 | x6 | x6 | x6 | x6 | x6 | x6 | c2 c' c2 B | c3- c B2 | c3- c B2 | x6 | c3- c B2 | c x3 B2 | %58
 c x3 B2 | x6 | x6 | x6 | x6 | x6 :| %64

